X:18
T:Master Crowley's
R:reel
M:4/4
L:1/8
K:Edor
|:B,~E3 B,EGE|EDB,D A,DFD|B,EE2 B,EGE|FAdA FEED|
B,2EE B,EGE|EDB,D A,DFD|B,~E3 B,EGE|1 FAdA FEED:|2 FAdA FEEd||
|:ebab gaeg|fdad bdad|ebge f3e|dBAc BE E2|
ebab gaeg|fdad bdad|EFGA BAGB|1 AFDE FEEd:|2 AFDE FEED|

